dist/images/svg/logo-phone.svg

<svg width="147" height="42" viewBox="0 0 147 42" fill="none" xmlns="http://www.w3.org/2000/svg">
<g filter="url(#filter0_d_407_216)">
<path d="M77 6.29655e-07L33 2.04527e-07C26.4643 -0.0821543 11.9749 0.100216 4 0C9.02854 12.3085 28.0883 33.1589 68.5 33.5C108.912 33.8411 129.562 19.9113 142.5 -2.90183e-07C119.03 -0.225805 95.4941 5.2967e-07 77 6.29655e-07Z" fill="url(#paint0_linear_407_216)"/>
</g>
<path d="M95.8507 12.1394C96.7489 12.2978 97.4635 12.7298 97.9943 13.4354C98.5387 14.1411 98.8109 15.0123 98.8109 16.0492C98.8109 16.6972 98.6952 17.2876 98.4638 17.8205C98.246 18.3677 97.9262 18.8285 97.5043 19.203C97.096 19.5918 96.5992 19.887 96.014 20.0886C95.4424 20.3046 94.8027 20.4126 94.095 20.4126C93.0606 20.4126 92.1555 20.1894 91.3797 19.743C90.604 19.311 90.0187 18.7061 89.624 17.9285L90.5835 16.9996C90.8694 17.6333 91.3049 18.1373 91.8901 18.5117C92.4753 18.8861 93.2103 19.0733 94.095 19.0733C95.1157 19.0733 95.9187 18.8069 96.5039 18.2741C97.0892 17.7557 97.3818 17.0068 97.3818 16.0276C97.3818 15.0339 97.0756 14.2491 96.4631 13.6731C95.8507 13.097 94.966 12.809 93.8091 12.809H93.2988V11.5561H93.85C94.898 11.5561 95.701 11.3041 96.259 10.8001C96.817 10.2817 97.096 9.61204 97.096 8.7912C97.096 8.35917 97.0211 7.97755 96.8714 7.64633C96.7217 7.31512 96.5108 7.0415 96.2386 6.82549C95.98 6.59508 95.6669 6.42227 95.2995 6.30706C94.9456 6.19186 94.5577 6.13426 94.1358 6.13426C93.36 6.13426 92.6727 6.32146 92.0738 6.69588C91.4886 7.0559 91.0463 7.55993 90.7469 8.20796L89.8486 7.30072C90.0119 6.9263 90.2433 6.58788 90.5427 6.28546C90.8421 5.96865 91.1824 5.70223 91.5635 5.48622C91.9446 5.27021 92.3665 5.1046 92.8292 4.98939C93.292 4.85979 93.7683 4.79498 94.2583 4.79498C94.8843 4.79498 95.456 4.88859 95.9732 5.0758C96.5039 5.26301 96.9599 5.52942 97.341 5.87504C97.7221 6.20626 98.0147 6.60948 98.2188 7.0847C98.4366 7.55993 98.5455 8.08556 98.5455 8.66159C98.5455 9.09361 98.4842 9.51123 98.3617 9.91446C98.2392 10.3033 98.0623 10.6561 97.8309 10.9729C97.5996 11.2753 97.3138 11.5345 96.9735 11.7506C96.6469 11.9522 96.2726 12.0818 95.8507 12.1394Z" fill="url(#paint1_linear_407_216)"/>
<path d="M108.001 16.7603C108.317 16.7603 108.597 16.8335 108.841 16.9799C109.085 17.1263 109.272 17.3322 109.401 17.5976C109.535 17.8629 109.602 18.174 109.602 18.5309C109.602 18.8878 109.535 19.2034 109.401 19.4779C109.267 19.7479 109.078 19.9583 108.834 20.1093C108.594 20.2557 108.317 20.3289 108.001 20.3289C107.704 20.3289 107.448 20.2672 107.232 20.1436C107.022 20.0201 106.864 19.8417 106.758 19.6083V20.2809H106.32V15.2299H106.751V17.4878C106.856 17.2498 107.017 17.0691 107.232 16.9456C107.448 16.8221 107.704 16.7603 108.001 16.7603ZM107.95 19.9583C108.324 19.9583 108.616 19.8325 108.826 19.5809C109.037 19.3293 109.142 18.9793 109.142 18.5309C109.142 18.0871 109.037 17.7417 108.826 17.4946C108.616 17.2476 108.321 17.124 107.943 17.124C107.565 17.124 107.273 17.2476 107.067 17.4946C106.861 17.7417 106.758 18.0917 106.758 18.5446C106.758 18.9976 106.861 19.3476 107.067 19.5946C107.273 19.8371 107.567 19.9583 107.95 19.9583Z" fill="black"/>
<path d="M115.016 16.8427L113.321 20.6377C113.154 21.0129 112.943 21.2874 112.689 21.4613C112.441 21.6397 112.127 21.7655 111.749 21.8387L111.663 21.5093C112.007 21.4315 112.266 21.3309 112.438 21.2074C112.615 21.0838 112.764 20.8894 112.883 20.624L113.034 20.2877L111.497 16.8427H111.964L113.264 19.8623L114.571 16.8427H115.016Z" fill="black"/>
<circle cx="102.146" cy="20.0997" r="0.347832" fill="black"/>
<path d="M82.3699 20.2388C81.7577 20.2388 81.2151 20.0857 80.742 19.7796C80.2782 19.4643 79.9026 19.0701 79.615 18.597V23.0632H78.6689V12.8508H79.5177V14.2561C79.8145 13.8016 80.1994 13.4352 80.6725 13.1569C81.1455 12.8694 81.6603 12.7256 82.2168 12.7256C82.7177 12.7256 83.1768 12.8323 83.5942 13.0456C84.0116 13.2497 84.3734 13.5279 84.6795 13.8804C84.9856 14.2236 85.2221 14.6225 85.3891 15.077C85.5653 15.5315 85.6534 15.9999 85.6534 16.4822C85.6534 16.9924 85.5746 17.4747 85.4169 17.9292C85.2592 18.3837 85.0319 18.7825 84.7351 19.1257C84.4476 19.4689 84.0998 19.7425 83.6916 19.9466C83.2928 20.1414 82.8522 20.2388 82.3699 20.2388ZM82.1055 19.404C82.4951 19.404 82.8476 19.3205 83.1629 19.1535C83.4876 18.9866 83.7612 18.7686 83.9838 18.4996C84.2157 18.2214 84.3919 17.9106 84.5125 17.5674C84.6331 17.215 84.6934 16.8532 84.6934 16.4822C84.6934 16.0926 84.6238 15.7216 84.4847 15.3691C84.3456 15.0167 84.1554 14.7059 83.9142 14.4369C83.6731 14.168 83.3855 13.9546 83.0516 13.7969C82.727 13.6393 82.3745 13.5604 81.9942 13.5604C81.7531 13.5604 81.498 13.6114 81.229 13.7135C80.9693 13.8062 80.7235 13.9361 80.4916 14.103C80.269 14.2607 80.0742 14.4509 79.9072 14.6735C79.7495 14.8868 79.6521 15.1141 79.615 15.3552V17.5813C79.7264 17.8411 79.8655 18.0822 80.0324 18.3048C80.2087 18.5274 80.4035 18.7222 80.6168 18.8892C80.8394 19.0469 81.0759 19.1721 81.3264 19.2649C81.5768 19.3576 81.8365 19.404 82.1055 19.404Z" fill="black"/>
<path d="M66.8313 20.2388C66.3026 20.2388 65.8203 20.1414 65.3843 19.9466C64.9484 19.7425 64.5681 19.4689 64.2435 19.1257C63.9281 18.7825 63.6823 18.3837 63.5061 17.9292C63.3298 17.4747 63.2417 16.997 63.2417 16.4961C63.2417 15.986 63.3298 15.5036 63.5061 15.0491C63.6916 14.5946 63.942 14.1958 64.2574 13.8526C64.582 13.5094 64.9623 13.2358 65.3983 13.0317C65.8342 12.8276 66.3119 12.7256 66.8313 12.7256C67.3508 12.7256 67.8284 12.8276 68.2644 13.0317C68.7096 13.2358 69.0899 13.5094 69.4053 13.8526C69.7299 14.1958 69.9804 14.5946 70.1566 15.0491C70.3421 15.5036 70.4349 15.986 70.4349 16.4961C70.4349 16.997 70.3467 17.4747 70.1705 17.9292C69.9943 18.3837 69.7438 18.7825 69.4192 19.1257C69.1038 19.4689 68.7235 19.7425 68.2783 19.9466C67.8424 20.1414 67.36 20.2388 66.8313 20.2388ZM64.2017 16.51C64.2017 16.9181 64.2713 17.2984 64.4104 17.6509C64.5495 17.9941 64.7351 18.3002 64.9669 18.5692C65.2081 18.8289 65.4864 19.033 65.8017 19.1814C66.1264 19.3298 66.4696 19.404 66.8313 19.404C67.1931 19.404 67.5316 19.3298 67.847 19.1814C68.1716 19.0237 68.4545 18.815 68.6957 18.5553C68.9369 18.2863 69.127 17.9756 69.2661 17.6231C69.4053 17.2706 69.4748 16.8903 69.4748 16.4822C69.4748 16.0834 69.4053 15.7077 69.2661 15.3552C69.127 14.9935 68.9369 14.6827 68.6957 14.423C68.4545 14.154 68.1716 13.9453 67.847 13.7969C67.5316 13.6393 67.1931 13.5604 66.8313 13.5604C66.4696 13.5604 66.131 13.6393 65.8157 13.7969C65.5003 13.9453 65.222 14.154 64.9809 14.423C64.7397 14.692 64.5495 15.0074 64.4104 15.3691C64.2713 15.7216 64.2017 16.1019 64.2017 16.51Z" fill="black"/>
<path d="M52.4001 19.7519C52.3444 19.7797 52.2609 19.8168 52.1496 19.8632C52.0476 19.9096 51.927 19.9559 51.7879 20.0023C51.6487 20.0487 51.4911 20.0904 51.3148 20.1275C51.1386 20.1646 50.9531 20.1832 50.7583 20.1832C50.5542 20.1832 50.3594 20.1554 50.1739 20.0997C49.9884 20.0441 49.8261 19.9606 49.687 19.8493C49.5478 19.7287 49.4365 19.5803 49.353 19.404C49.2696 19.2278 49.2278 19.0238 49.2278 18.7919V13.6022H48.2261V12.8509H49.2278V10.4022H50.1739V12.8509H51.8435V13.6022H50.1739V18.5275C50.1925 18.7965 50.2852 18.9959 50.4522 19.1258C50.6284 19.2464 50.8279 19.3067 51.0505 19.3067C51.3195 19.3067 51.556 19.2649 51.76 19.1814C51.9641 19.0887 52.094 19.0237 52.1496 18.9866L52.4001 19.7519Z" fill="black"/>
<path d="M39.2904 20.0997L36.3408 12.8509H37.3147L39.8052 19.2232L42.3096 12.8509H43.2279L40.2783 20.0997H39.2904Z" fill="black"/>
<path fill-rule="evenodd" clip-rule="evenodd" d="M59.2603 10.9488C59.4859 11.0926 59.5522 11.3922 59.4083 11.6178C58.5509 12.9625 58.054 14.5592 58.054 16.2734C58.054 21.0629 61.9366 24.9454 66.726 24.9454C71.067 24.9454 74.6638 21.7554 75.2985 17.5918C75.3388 17.3272 75.5859 17.1455 75.8505 17.1858C76.115 17.2261 76.2968 17.4733 76.2564 17.7378C75.5507 22.3676 71.553 25.9145 66.726 25.9145C61.4014 25.9145 57.085 21.598 57.085 16.2734C57.085 14.3692 57.6375 12.5925 58.5913 11.0968C58.7351 10.8712 59.0347 10.8049 59.2603 10.9488Z" fill="url(#paint2_linear_407_216)"/>
<path d="M61.4893 7.32976C61.7126 7.22047 61.9705 7.39395 61.9535 7.64202L61.5153 14.0249C61.4925 14.3572 61.0426 14.4417 60.9008 14.1403L59.5361 11.2406C59.4867 11.1357 59.3849 11.0653 59.2694 11.0561L55.8027 10.7814C55.475 10.7554 55.391 10.3137 55.6862 10.1692L61.4893 7.32976Z" fill="url(#paint3_linear_407_216)"/>
<path d="M65.0076 4.04122C64.9807 3.88206 65.0892 3.72943 65.2503 3.69996L66.999 3.38009C67.1601 3.35063 67.3123 3.45557 67.3392 3.61473C67.3662 3.77389 67.2577 3.92653 67.0966 3.95599L65.3479 4.27586C65.1868 4.30533 65.0346 4.20038 65.0076 4.04122Z" fill="#5C6ABF"/>
<path d="M64.4066 3.11785C64.2723 3.03077 64.2415 2.84817 64.3394 2.71843L65.3655 1.27676C65.4575 1.14807 65.6433 1.11392 65.7777 1.201C65.9072 1.29483 65.938 1.47743 65.8459 1.60613L64.813 3.04315C64.7219 3.17758 64.5362 3.21172 64.4066 3.11785Z" fill="#5C6ABF"/>
<path d="M60.4164 2.1726C60.511 2.04031 60.6947 2.00655 60.8268 2.09715L62.2624 3.0814C62.3945 3.17201 62.4249 3.35257 62.3303 3.48486C62.2357 3.61714 62.052 3.65091 61.9199 3.5603L60.4843 2.57605C60.3522 2.48545 60.3218 2.3049 60.4164 2.1726Z" fill="#5C6ABF"/>
<path d="M64.7594 5.11468C64.8541 4.9824 65.0378 4.94863 65.1699 5.03924L66.6055 6.02348C66.7376 6.11409 66.7681 6.29465 66.6734 6.42694C66.5788 6.55922 66.3951 6.59299 66.263 6.50239L64.8274 5.51814C64.6952 5.42754 64.6648 5.24699 64.7594 5.11468Z" fill="#5C6ABF"/>
<path d="M62.9598 2.65285L62.6708 0.947626C62.6442 0.790537 62.7513 0.639905 62.9102 0.610842C63.0692 0.581779 63.2193 0.685376 63.2459 0.842465L63.5349 2.54768C63.5616 2.70477 63.4545 2.85541 63.2956 2.88447C63.1366 2.91353 62.9865 2.80993 62.9598 2.65285Z" fill="#5C6ABF"/>
<path d="M65.7791 1.20449L64.4062 3.1147C64.2713 3.02775 64.2403 2.84564 64.3383 2.71635L65.3657 1.27968C65.4579 1.15143 65.6442 1.11754 65.7791 1.20449Z" fill="#5C6ABF"/>
<defs>
<filter id="filter0_d_407_216" x="0" y="-0.100372" width="146.5" height="41.6065" filterUnits="userSpaceOnUse" color-interpolation-filters="sRGB">
<feFlood flood-opacity="0" result="BackgroundImageFix"/>
<feColorMatrix in="SourceAlpha" type="matrix" values="0 0 0 0 0 0 0 0 0 0 0 0 0 0 0 0 0 0 127 0" result="hardAlpha"/>
<feOffset dy="4"/>
<feGaussianBlur stdDeviation="2"/>
<feColorMatrix type="matrix" values="0 0 0 0 0 0 0 0 0 0 0 0 0 0 0 0 0 0 0.25 0"/>
<feBlend mode="normal" in2="BackgroundImageFix" result="effect1_dropShadow_407_216"/>
<feBlend mode="normal" in="SourceGraphic" in2="effect1_dropShadow_407_216" result="shape"/>
</filter>
<linearGradient id="paint0_linear_407_216" x1="17.8082" y1="-86.438" x2="146.285" y2="-31.9332" gradientUnits="userSpaceOnUse">
<stop stop-color="#F6A21E"/>
<stop offset="1" stop-color="#F1CA2D"/>
</linearGradient>
<linearGradient id="paint1_linear_407_216" x1="94.2174" y1="4.79498" x2="94.2174" y2="20.4126" gradientUnits="userSpaceOnUse">
<stop stop-color="#56295A"/>
<stop offset="1" stop-color="#5C6ABF"/>
</linearGradient>
<linearGradient id="paint2_linear_407_216" x1="57.4084" y1="15.4039" x2="73.5826" y2="5.66458" gradientUnits="userSpaceOnUse">
<stop/>
<stop offset="0.807292" stop-color="#3D3D3D" stop-opacity="0"/>
</linearGradient>
<linearGradient id="paint3_linear_407_216" x1="60.8588" y1="8.27136" x2="55.5737" y2="16.1284" gradientUnits="userSpaceOnUse">
<stop stop-color="#5C6ABF"/>
<stop offset="1" stop-color="#56295A"/>
</linearGradient>
</defs>
</svg>

<svg width="147" height="42" fill="none" xmlns="http://www.w3.org/2000/svg"><g filter="url(#a)"><path d="M77 0H33C26.464-.082 11.975.1 4 0c5.029 12.309 24.088 33.159 64.5 33.5 40.412.341 61.062-13.589 74-33.5C119.03-.226 95.494 0 77 0Z" fill="url(#b)"/></g><path d="M95.85 12.14c.899.158 1.614.59 2.144 1.295.545.706.817 1.577.817 2.614a4.4 4.4 0 0 1-.347 1.771 3.596 3.596 0 0 1-.96 1.383 4.031 4.031 0 0 1-1.49.886c-.572.216-1.211.324-1.919.324-1.034 0-1.94-.224-2.715-.67a4.23 4.23 0 0 1-1.756-1.814l.96-.93a3.436 3.436 0 0 0 1.306 1.513c.585.374 1.32.561 2.205.561 1.02 0 1.824-.266 2.409-.799.585-.518.878-1.267.878-2.246 0-.994-.306-1.779-.919-2.355-.612-.576-1.497-.864-2.654-.864h-.51v-1.253h.551c1.048 0 1.851-.252 2.409-.756.558-.518.837-1.188.837-2.009 0-.432-.075-.813-.225-1.145a2.17 2.17 0 0 0-.632-.82 2.527 2.527 0 0 0-.94-.519 3.742 3.742 0 0 0-1.163-.173c-.776 0-1.463.187-2.062.562a3.408 3.408 0 0 0-1.327 1.512l-.898-.907c.163-.375.394-.713.694-1.016.3-.316.64-.583 1.02-.799a5.005 5.005 0 0 1 1.266-.497c.463-.13.94-.194 1.43-.194.625 0 1.197.094 1.714.28.53.188.987.454 1.368.8.381.331.674.734.878 1.21.218.475.327 1 .327 1.577 0 .432-.062.85-.184 1.252-.123.39-.3.742-.531 1.059a3.282 3.282 0 0 1-.858.778c-.326.201-.7.33-1.122.388Z" fill="url(#c)"/><path d="M108.001 16.76a1.6 1.6 0 0 1 .84.22c.244.146.431.352.56.618.134.265.201.576.201.933 0 .357-.067.672-.201.947-.134.27-.323.48-.567.631-.24.147-.517.22-.833.22-.297 0-.553-.062-.769-.185a1.159 1.159 0 0 1-.474-.536v.673h-.438V15.23h.431v2.258c.105-.238.266-.419.481-.542.216-.124.472-.186.769-.186Zm-.051 3.198c.374 0 .666-.125.876-.377.211-.252.316-.602.316-1.05 0-.444-.105-.79-.316-1.036-.21-.247-.505-.371-.883-.371s-.67.124-.876.37c-.206.248-.309.598-.309 1.05 0 .454.103.804.309 1.05.206.243.5.364.883.364ZM115.016 16.843l-1.695 3.795c-.167.375-.378.65-.632.823-.248.179-.562.305-.94.378l-.086-.33c.344-.078.603-.178.775-.302.177-.123.326-.318.445-.583l.151-.336-1.537-3.445h.467l1.3 3.02 1.307-3.02h.445Z" fill="#000"/><circle cx="102.146" cy="20.1" r=".348" fill="#000"/><path d="M82.37 20.239c-.612 0-1.155-.153-1.628-.46a3.807 3.807 0 0 1-1.127-1.182v4.466h-.946V12.851h.849v1.405c.296-.454.681-.82 1.154-1.1a2.919 2.919 0 0 1 1.545-.43c.5 0 .96.106 1.377.32.418.204.78.482 1.086.834.306.344.542.742.71 1.197.175.454.263.923.263 1.405 0 .51-.078.993-.236 1.447a3.625 3.625 0 0 1-.682 1.197 3.229 3.229 0 0 1-1.043.82 2.97 2.97 0 0 1-1.322.293Zm-.264-.835c.39 0 .742-.084 1.057-.25.325-.167.598-.385.82-.654.233-.279.409-.59.53-.933.12-.352.18-.714.18-1.085a3.072 3.072 0 0 0-.78-2.045 2.687 2.687 0 0 0-.861-.64 2.389 2.389 0 0 0-1.058-.237c-.24 0-.496.051-.765.153-.26.093-.505.223-.737.39a2.623 2.623 0 0 0-.585.57c-.157.214-.255.441-.292.682v2.226c.111.26.25.501.417.724.177.222.371.417.585.584.222.158.459.283.71.376.25.093.51.139.779.139ZM66.831 20.239a3.508 3.508 0 0 1-1.447-.292 3.734 3.734 0 0 1-1.14-.821 3.755 3.755 0 0 1-.738-1.197 3.928 3.928 0 0 1-.264-1.433c0-.51.088-.992.264-1.447.186-.454.436-.853.751-1.196a3.733 3.733 0 0 1 1.141-.821 3.337 3.337 0 0 1 1.433-.306c.52 0 .997.102 1.433.306.446.204.826.477 1.141.82.325.344.575.743.752 1.197.185.455.278.937.278 1.447 0 .501-.088.979-.264 1.433a3.634 3.634 0 0 1-.752 1.197 3.524 3.524 0 0 1-1.14.82 3.507 3.507 0 0 1-1.448.293Zm-2.63-3.729c0 .408.07.788.21 1.14.138.344.324.65.556.92.241.259.52.463.835.611.324.149.668.223 1.03.223.361 0 .7-.074 1.015-.223.325-.157.608-.366.849-.626a3.07 3.07 0 0 0 .779-2.073c0-.399-.07-.774-.209-1.127a2.862 2.862 0 0 0-.57-.932 2.557 2.557 0 0 0-.849-.626 2.241 2.241 0 0 0-1.016-.237c-.361 0-.7.08-1.015.237a2.6 2.6 0 0 0-.835.626 3.031 3.031 0 0 0-.57.946 3.08 3.08 0 0 0-.21 1.141ZM52.4 19.752c-.056.028-.14.065-.25.111a3.745 3.745 0 0 1-.362.14c-.14.046-.297.087-.473.125a2.696 2.696 0 0 1-.557.055c-.204 0-.399-.028-.584-.083a1.425 1.425 0 0 1-.487-.25 1.339 1.339 0 0 1-.46-1.058v-5.19h-1v-.751h1v-2.449h.947v2.449h1.67v.751h-1.67v4.925c.019.27.111.469.278.599.176.12.376.18.599.18.268 0 .505-.041.709-.125.204-.092.334-.157.39-.194l.25.765ZM39.29 20.1l-2.95-7.25h.975l2.49 6.373 2.505-6.372h.918l-2.95 7.249h-.988Z" fill="#000"/><path fill-rule="evenodd" clip-rule="evenodd" d="M59.26 10.949a.484.484 0 0 1 .148.669 8.672 8.672 0 1 0 15.89 5.974.484.484 0 1 1 .958.146c-.705 4.63-4.703 8.177-9.53 8.177-5.325 0-9.641-4.317-9.641-9.642 0-1.904.553-3.68 1.506-5.176a.484.484 0 0 1 .67-.148Z" fill="url(#d)"/><path d="M61.49 7.33a.323.323 0 0 1 .463.312l-.438 6.383c-.023.332-.472.417-.614.115l-1.365-2.9a.323.323 0 0 0-.267-.184l-3.466-.275c-.328-.026-.412-.467-.117-.612l5.803-2.84Z" fill="url(#e)"/><path d="M65.008 4.041a.299.299 0 0 1 .242-.341L67 3.38a.29.29 0 0 1 .34.235.299.299 0 0 1-.242.341l-1.75.32a.29.29 0 0 1-.34-.235ZM64.407 3.118a.276.276 0 0 1-.068-.4l1.026-1.441a.308.308 0 0 1 .413-.076c.13.094.16.276.068.405l-1.033 1.437a.29.29 0 0 1-.406.075ZM60.416 2.173a.3.3 0 0 1 .41-.076l1.436.984c.133.091.163.272.068.404a.3.3 0 0 1-.41.075l-1.436-.984a.285.285 0 0 1-.068-.403ZM64.76 5.115a.3.3 0 0 1 .41-.076l1.436.984c.132.091.162.272.067.404a.3.3 0 0 1-.41.075l-1.436-.984a.285.285 0 0 1-.068-.403ZM62.96 2.653 62.67.948a.295.295 0 0 1 .24-.337c.16-.03.31.074.336.231l.289 1.706a.295.295 0 0 1-.24.336.286.286 0 0 1-.335-.231Z" fill="#5C6ABF"/><path d="m65.78 1.204-1.374 1.91a.274.274 0 0 1-.068-.398l1.028-1.436a.31.31 0 0 1 .413-.076Z" fill="#5C6ABF"/><defs><linearGradient id="b" x1="17.808" y1="-86.438" x2="146.285" y2="-31.933" gradientUnits="userSpaceOnUse"><stop stop-color="#F6A21E"/><stop offset="1" stop-color="#F1CA2D"/></linearGradient><linearGradient id="c" x1="94.217" y1="4.795" x2="94.217" y2="20.413" gradientUnits="userSpaceOnUse"><stop stop-color="#56295A"/><stop offset="1" stop-color="#5C6ABF"/></linearGradient><linearGradient id="d" x1="57.408" y1="15.404" x2="73.583" y2="5.665" gradientUnits="userSpaceOnUse"><stop/><stop offset=".807" stop-color="#3D3D3D" stop-opacity="0"/></linearGradient><linearGradient id="e" x1="60.859" y1="8.271" x2="55.574" y2="16.128" gradientUnits="userSpaceOnUse"><stop stop-color="#5C6ABF"/><stop offset="1" stop-color="#56295A"/></linearGradient><filter id="a" x="0" y="-.1" width="146.5" height="41.606" filterUnits="userSpaceOnUse" color-interpolation-filters="sRGB"><feFlood flood-opacity="0" result="BackgroundImageFix"/><feColorMatrix in="SourceAlpha" values="0 0 0 0 0 0 0 0 0 0 0 0 0 0 0 0 0 0 127 0" result="hardAlpha"/><feOffset dy="4"/><feGaussianBlur stdDeviation="2"/><feColorMatrix values="0 0 0 0 0 0 0 0 0 0 0 0 0 0 0 0 0 0 0.25 0"/><feBlend in2="BackgroundImageFix" result="effect1_dropShadow_407_216"/><feBlend in="SourceGraphic" in2="effect1_dropShadow_407_216" result="shape"/></filter></defs></svg>
